X:96
T:Earl the Breakfast Boiler
R:jig
D:Moving Hearts: The Storm
Z:id:hn-jig-96
M:6/8
K:Amix
ABc cBA|BEE EFA|Bee dEE|FED DEF|ABc cBA|BEE EFA|Bee dEE|AGF FED:|
|:ABc cBA|Bee edB|f2e dee|dBf fed|ABc cBA|Bee edB|f2e dfg|fea afd:|
|:aea e2a|eag fed|gee efg|aff fed|aea e2a|eag fga|beg e2f|dfa afd:|
<end>
<start>
